X:1
T:Fünf Lieder, Op.49
T:An ein Veilchen
T:2. An ein Veilchen
T:Johannes Brahms (Veröffentlicht 1868)
T:Fünf Lieder für eine Singstimme, Op.49
T:Ludwig Christoph Heinrich Hölty
T:OpenScore  (CC0) 
T:OpenScore  (CC0) 
T:OpenScore  (CC0) 
T:OpenScore  (CC0) 
C:Johannes Brahms
Z:OpenScore  (CC0)
Z:
%%score 1 { ( 2 4 ) | ( 3 5 ) }
L:1/8
Q:1/4=66
M:6/8
K:E
V:1 treble nm="Singstimme\nVoice"
V:2 treble nm="Pianoforte"
V:4 treble 
V:3 bass 
V:5 bass 
V:1
"^Andante" z6 | z6 | G3 B3 | c3 A2 G |!<(! F2 A d2 f!<)! |!>(! g3!>)! B2 z | e3 c3 | c3 ^B2 B | %8
w: ||Birg, o|Veil- chen, in|dei- nen blau- en|Kel- che,|birg die|Trä- nen der|
 (c3- c2 d) |[Q:1/4=68] ^B2 z z2 z | z6 | =B3 A3 | (G2 B) (A2 F) | D2 E G3- | G3[Q:1/4=65] F2 E | %15
w: Weh   \-- * *|\- mut,||bis mein|Lieb- * chen _|die- se Que  \--|* \-  le be-|
 E2[Q:1/4=68] z z2 z | z2 z z2 G | G3 B3 |[Q:1/4=70] =c3 A2 z | z6 |[Q:1/4=71]!<(! B3!<)! =d3 | %21
w: sucht!|Ent-|pflückt sie|lä- chelnd||dich dem|
!>(! e3!>)! =c2 z |[Q:1/4=72] z2 z z2 =c |!<(! =f3 ^c3 | =d3!<)! =g3 |[Q:1/4=70]!>(! =f6!>)! | %26
w: Ra- sen,|die|Brust mit|dir zu|schmü  \--|
[Q:1/4=72] e2 z z2 z | z6 | z6 | z6 |[Q:1/4=73] G3- G z G |[M:9/8][Q:1/4=74] A2 A z z A ^A2 A | %32
w: \-  cken,||||o _ dann|schmie- ge dich ihr ans|
[M:6/8][Q:1/4=75] (c2 B) z z B |[M:9/8][Q:1/4=76]!<(! c2 c z z[Q:1/4=78] c d2 d | %34
w: Herz, _ dann|schmie- ge dich ihr ans|
 (f2[Q:1/4=79] e) z z e ^e2 e!<)! |[M:6/8] (^g3[Q:1/4=70] f2) z |[Q:1/4=68] z2 z c3 | e6 | %38
w: Herz, _ dich ihr ans|Herz, _|und|sag|
 B2 z z2 z | z6 | z6 |[Q:1/4=68] G3 B3 | c3 A2 G |!<(! F2 A d2 f!<)! |!>(! g3!>)! B2 z | e3 c3 | %46
w: ihr,|||daß die|Trop- fen in|dei- nem blau- en|Kel- che|aus der|
[Q:1/4=71] c3!<(! ^B2 B!<)! | ^e2!>(! c ^B2!>)! c | c3 ^B2 z |[Q:1/4=68] z6 | z6 | d3 A3 | %52
w: See- le des|treu- sten Jüng- lings|flos- sen,|||der sein|
 A3 G2 z | z2 z =G3 | =G6 | F2 z z2 z | z2 z E3- | E3 E3 | =F6 |[Q:1/4=63] z2 z =c3 | (B6- | %61
w: Le- ben|ver-|wei  \--|\-  net|und|_ den|Tod,|den|Tod|
 B3 D3) | E3 z2 z | z6 |[Q:1/4=62] z6 | z6 | z6 | z6 | z6 |] %69
w: _ _|wünscht.|||||||
V:2
 z (G/B,/) z (B/E/) z (G/B,/) | z (G/B,/) z (B/E/) z (G/B,/) | z (G/B,/) z (B/E/) z (G/B,/) | %3
 z A/C/ z c/E/ z A/C/ | z A/B,/ z d/F/ z A/F/ | z B/G/ z g/B/ z B/G/ | z G/E/ z e/G/ z G/E/ | %7
 z G/D/ z d/G/ z G/D/ | z G/D/ z c/G/ z ^^F/D/ | z G/D/ z d/G/ z!<(! G/D/ | %10
 [=Ac]3-!<)! [Ac]2 [cf] | ([GB]3 [FA]3) | ([EG]2 [DB] [CA]2 [A,F]) |!<(! [F,D]2 [G,E]!<)! [B,G-]3 | %14
 [B,G]3 [A,F]3 | z (E/G,/) z (G/B,/) z (B,/G,/) | z (E/G,/) z (G/B,/) z (B,/G,/) | %17
 z G/B,/ z B/E/ z G/E/ | z A/=C/ z =c/E/ z A/E/ | ([=ce]3 c2) z | z B/=D/ z =d/=G/ z B/G/ | %21
 z =c/E/ z e/=G/ z c/G/ |!>(! ([e=g]3!>)! =c2) z | z =c/A/ z!<(! =f/A/ z ^c/A/ | %24
 z =d/_B/ z =g/B/ z _d/!<)!B/ |!f! z _B/=G/ z =g/B/ z B/G/ |!>(! z _B/=C/ z =c/B/ z B/!>)!C/ | %27
!p! z!>(! _B,/=G,/ z =G/B,/ z B,/G,/ | z _B,/=G,/ z =G/B,/ z B,/G,/!>)! | %29
 z z/ (^G,[G,B,][G,E]!<(![G,B,][G,E]/) | z/ [G,G][G,B,][G,E][G,G][G,FG][G,EG]/ | %31
[M:9/8] z/ [A,A][A,GA][A,FA] [A,GA][A,FA][A,EA] [^A,=G^A]!<)![A,FA][A,EA]/ | %32
[M:6/8] z/ [B,=AB][B,DB][B,FB][B,AB][B,GB][B,FB]/ | %33
[M:9/8] z/ [CBc][CAc][CGc]!<(! [CAc][CGc][CFc] [D=cd][DBd][DAd]/ | %34
 z/ [EB=de][Ace][GBe] [Bde][Ace][GBe] [Bd^e][Ace]!<)![GBe]/ | %35
[M:6/8]!f! z3/2 [Ac][FA][cf][Ac][FA]/ | z3/2 [Fc]"_dim."[EF][ce][Fc][EF]/ | %37
 z z!<(! ([GB]!<)!!>(! [=Ge]2!>)! [G^A]) | z z!<(! ([EF]!<)!!>(! [DB]2!>)! [DF]) | %39
!>(! z2 z [CF=A]2 z | z2 z!>)! [A,D]2 z |!p! z3/2 ([EG][B,E][GB][EG][B,E]/) | %42
 z3/2 ([EA][CE][Ac][EA][CE]/) | z3/2 ([FA][DF][Ad][FA][DF]/) | z3/2 ([GB][EG][Be][GB][EG]/) | %45
 z3/2 [Gc][EG][ce][Gc][EG]/ | z3/2 [Gc][DG][^Bd][GB][DG]/ | z3/2 [^^F^A][DF][Ac][FA][DF]/ | %48
 z3/2 [G^B][DG][Bd] z/!<(! ([GB] | [=Acf]2!<)! [Ac]!>(! [Ac]2!>)! [=Bd]) | ([Ac]3 [GB]3- | %51
 [GB]3 [FA]3-) | [FA]3 [EG]3- | [EG]3 [E=G]3- | [EG]6- | [EG]2 z z2 z |!p! z (=CE,ECE,) | %57
 z (=CE,ECE,) | z (=C=F,=FCF,) | z (=FA,AFA,) | (^GE!<(!B,[GB]E!<)!B, |!>(! [AB]F!>)!B,[FA]DB,) | %62
 z G2 B3 |!>(! c3!>)! B3 | z!<(! ([GB]B,!<)! [GBe]3 |!>(! [FAd]3!>)! [B,FA]3- | %66
!p! [B,FA]3) [B,EG]2 z | z2 z [B,EG]2 z | !fermata![G,B,EG]6 |] %69
V:3
 E,, z (B,/E,/) z (E/B,/) z | E,, z (B,/E,/) z (E/B,/) z | E,, z (B,/E,/) z (E/B,/) z | %3
 E,, z C/E,/ z E/A,/ z | E,, z B,/E,/ z F/B,/ z | E,, z B,/E,/ z G/E/ z | E,, z C/G,/ z C/G,/ z | %7
 D,, z G,/D,/ z ^B,/G,/ z | D,, z ^A,/D,/ z A,/D,/ z | D,, z ^B,/D,/ z G,/D,/ z | %10
 D,, z A,/D,/ z A,/D,/ z | B,,, z D,/B,,/ z F,/B,,/ z | E,, (G,/E,/) z A,,, F,/C,/ z | %13
 B,,, (F,/B,,/) z G,,, z (E,/G,,/) | z (E,/G,,/) z B,,, z D,/B,,/ | %15
"^dolce" E,, z (E,/B,,/) z (E,/B,,/) z | E,, z (E,/B,,/) z (E,/B,,/) z | E,, z B,/E,/ z E/B,/ z | %18
 E,, z =C/E,/ z E/A,/ z | A,,, z A,/E,/ z =C/A,/ z | =G,,, z =D/=G,/ z =G/D/ z | %21
 =G,, z E/=G,/ z =G/=C/ z | =C,, z E/=C/ z E/C/ z | =F,, z _E/=F,/ z _E/F,/ z | %24
 _B,, z =D/_B,/ z _D/B,/ z | =C,, z =C/_B,/ z C/B,/ z | =C,, z _B,/=C,/ z B,/C,/ z | %27
 E,, z =G,/E,/ z G,/E,/ z | E,, z =G,/E,/ z G,/E,/ z | %29
"^espress.  legato    poco          a           poco          cresc." (=B,,,E,,B,, B,,,E,,B,,) | %30
 (E,,G,,B,, E,D,C,) |[M:9/8] (F,E,D, E,D,C, E,D,C,) |[M:6/8] (D,,F,,B,, F,E,D,) | %33
[M:9/8] (G,F,E, F,E,D, [A,=C][G,B,][F,A,]) | (G,,B,,E,) [B,=DE][A,CE][G,B,E] [B,D^E][A,CE][G,B,E] | %35
[M:6/8] A,, [A,C][F,A,][CF][A,C][F,A,] | ^A,, [F,C][E,F,][CE][F,C][E,F,] | %37
 B,, [G,B,][E,G,][CE][=G,C][E,G,] | B,,, [E,F,][B,,E,][F,B,][D,F,][B,,D,] | F,,, (F,C,) z2 z | %40
 B,,, (F,B,,) z2 z | E,,"^molto dolce" ([E,G,][B,,E,][G,B,][E,G,][B,,E,]) | %42
 E,, ([E,A,][C,E,][A,C][E,A,][C,E,]) | E,, ([F,A,][D,F,][A,D][F,A,][D,F,]) | %44
 E,, ([G,B,][E,G,][B,E][G,B,][E,G,]) | C,, [G,C][E,G,][CE][G,C][E,G,] | %46
 D,, [G,C][D,G,][^B,D][G,B,][D,G,] | D,, [^^F,^A,][D,F,][A,C][F,A,][D,F,] | %48
 D,, [G,^B,][D,G,][B,D][G,B,][D,G,] | D,, [=A,C][D,A,][CF][A,C][D,A,] | %50
 D,, [F,A,][D,F,][G,B,][D,G,][B,,D,] | B,,, D,B,,F,D,B,, | E,, D,B,,E,B,,G,, | %53
 E,, B,,G,,E,B,,=G,, | B,,, (C,^A,, E,C,A,,) | B,,, (B,,F,, D,B,,F,,) | (=C,,=C,E,,E,C,E,,) | %57
 (=C,,=C,E,,E,C,E,,) | (A,,,=C,=F,,=F,C,F,,) | C,, (=F,A,,A,F,A,,) | B,,, (E,B,,G,E,B,, | %61
 A,F,B,,F,D,B,,) | E,, (E,B,,G,E,B,, | A,F,B,,F,D,B,,) | E,, (E,B,,G,E,B,, | A,F,B,,F,D,B,,) | %66
 x (D,B,, E,2) z | z2 z [E,,E,]2 z | !fermata![E,,,E,,]6 |] %69
V:4
 x6 | x6 | x6 | x6 | x6 | x6 | x6 | x6 | x6 | x5 ^B | z F/C/!>(! z F/C/ z A/!>)!F/ | %11
 z D/B,/zx/B,/ z D/B,/ | x6 | x3 z E/G,/ z | E/G,/ z!>(! E/G,/ z D/B,/!>)! z | x6 | x6 | x6 | x6 | %19
 z A/E/ z A/E/ z A/E/ | x6 | x6 | z _B/=G/ z B/G/ z B/G/ | x6 | x6 | x6 | x6 | x6 | x6 | x6 | x6 | %31
[M:9/8] x9 |[M:6/8] x6 |[M:9/8] x9 | x9 |[M:6/8] x6 | x6 | x6 | x6 | x6 | x6 | x6 | x6 | x6 | x6 | %45
 x6 | x6 | x6 | x6 | x6 | x6 | z!>(! DB,xDB, | z DB,xB,G, | z CG,xB,!>)!=G, | z!>(! C^A, ECA, | %55
 z B,F, DB,F,!>)! | x6 | x6 | x6 | x6 | x6 | x6 | x E!<(!B,GE!<)!B, | ADB,AFB, | x6 | x6 | x6 | %67
 x6 | x6 |] %69
V:5
 x6 | x6 | x6 | x6 | x6 | x6 | x6 | x6 | x6 | x6 | x6 | x6 | x6 | x6 | x6 | x6 | x6 | x6 | x6 | %19
 x6 | x6 | x6 | x6 | x6 | x6 | x6 | x6 | x6 | x6 | x6 | x6 |[M:9/8] x9 |[M:6/8] x6 |[M:9/8] x9 | %34
 x9 |[M:6/8] x6 | x6 | x6 | x6 | x6 | x6 | x6 | x6 | x6 | x6 | x6 | x6 | x6 | x6 | x6 | x6 | x6 | %52
 x6 | x6 | x6 | x6 | x6 | x6 | x6 | x6 | x6 | x6 | x6 | x6 | x6 | x6 | E,,3- E,,2 z | x6 | x6 |] %69

